X: 109
T:Glentromie, a Strathspey
B:William Marshall's Scottish Airs, Melodies, Strathspeys, Reels &c (1822)
C:William Marshall
L:1/8
M:C
O:Scotland
R:Strathspey
Z:Clark Bernst + Richard Robinson
%%Page:45 - 3
F:http://richardrobinson.tunebook.org.uk/tune/3952
%%TBL:{"version":1,"type":"tune","id":"3952"}
K:C
%%staves {1 2}
V:1
e/f/ | \
g<ce>d ~c2 ce/f/ | gcac Bd- .de/f/ | \
g<ce>d ~c2 (c/B/A/G/) | (A/B/)c/A/ (B/c/)d/B/ Gc ~c  :|
G/F/ | \
EcGc EcGc | {cd}e>d c/d/e/c/ dD-D G/F/ | \
EcGc Egec | AfdB ec-c G/F/ |
EcGc EcGc | {cd}e>d c/d/e/c/ dD-D G/F/ | \
EGcE FAdf | e/f/g/a/ g/f/e/d/ ec ~c  |]
V:2 middle=d clef=bass
L:1/4
z/ | c'gcc | ccgg | ccce | fgcc/ :| \
z/ | [cc'][cc'][cc'][cc'] | [cc'][cc']dd | ccce | fgcc | \
[cc'][cc'][cc'][cc'] | [cc'][cc']dd | ccff | ggcc/ |]

